assets/icons/github.svg

<svg width="24" height="24" viewBox="0 0 24 24" fill="none" xmlns="http://www.w3.org/2000/svg">
<g clip-path="url(#clip0)">
<path d="M12.0001 0C5.40898 0 0 5.40898 0 12.0001C0 17.6246 3.94669 22.7338 9.18757 24.0002V20.0301C8.66828 20.1438 8.19037 20.1471 7.66174 19.9912C6.95257 19.782 6.37633 19.3095 5.94859 18.5892C5.67595 18.1292 5.19273 17.6304 4.68863 17.6671L4.56504 16.2663C5.65507 16.1729 6.59807 16.9304 7.15783 17.8709C7.40649 18.2891 7.69269 18.5343 8.06 18.6427C8.41504 18.7472 8.79627 18.697 9.24049 18.5401C9.352 17.6508 9.75941 17.3179 10.0672 16.8491V16.8484C6.94158 16.3822 5.69591 14.724 5.20152 13.4151C4.54636 11.6773 4.89793 9.50618 6.05644 8.13416C6.07896 8.10742 6.11961 8.03748 6.10387 7.98859C5.57267 6.38402 6.21996 5.05668 6.24376 4.91587C6.8568 5.09715 6.95641 4.7335 8.90668 5.91838L9.24378 6.1209C9.38478 6.20494 9.34046 6.15697 9.48146 6.14635C10.2957 5.92516 11.1541 5.80302 11.9999 5.79204C12.8521 5.80302 13.705 5.92516 14.553 6.15532L14.6621 6.16631C14.6526 6.16484 14.6918 6.15935 14.7575 6.12017C17.1937 4.64451 17.1062 5.12681 17.7595 4.91441C17.7832 5.0554 18.4218 6.40435 17.8963 7.98859C17.8255 8.20685 20.0085 10.2058 18.7985 13.4146C18.3041 14.724 17.0586 16.3822 13.933 16.8484V16.8491C14.3336 17.4598 14.815 17.7846 14.8124 19.0444V24.0002C20.0535 22.7338 24 17.6246 24 12.0001C24.0002 5.40898 18.5912 0 12.0001 0V0Z" fill="white"/>
</g>
<defs>
<clipPath id="clip0">
<rect width="24" height="24" fill="white"/>
</clipPath>
</defs>
</svg>

<svg width="24" height="24" fill="none" xmlns="http://www.w3.org/2000/svg"><g clip-path="url(#a)"><path d="M12 0C5.41 0 0 5.409 0 12c0 5.625 3.947 10.734 9.188 12v-3.97c-.52.114-.998.117-1.526-.039-.71-.209-1.286-.681-1.713-1.402-.273-.46-.756-.959-1.26-.922l-.124-1.4c1.09-.094 2.033.663 2.593 1.604.248.418.535.663.902.772.355.104.736.054 1.18-.103.112-.89.52-1.222.827-1.69v-.002c-3.125-.466-4.371-2.124-4.865-3.433-.656-1.738-.304-3.909.854-5.28.023-.028.064-.098.048-.146-.531-1.605.116-2.932.14-3.073.613.181.712-.183 2.663 1.002l.337.203c.14.084.096.036.237.025A10.183 10.183 0 0 1 12 5.792c.852.011 1.705.133 2.553.363l.11.011c-.01-.001.029-.007.095-.046 2.436-1.475 2.348-.993 3.002-1.206.023.141.662 1.49.136 3.075-.07.218 2.113 2.217.902 5.426-.494 1.309-1.74 2.967-4.865 3.433v.001c.4.61.882.936.88 2.195V24C20.052 22.734 24 17.625 24 12 24 5.41 18.591 0 12 0Z" fill="#fff"/></g><defs><clipPath id="a"><path fill="#fff" d="M0 0h24v24H0z"/></clipPath></defs></svg>
